X:1
T:I’ve Found a Refuge
T:I’ve Found a Refuge
T:Lance Brenton Latham
T:Avis Marguerite Burgeson Christiansen, 1920
T:Public Domain Courtesy of the Cyber Hymnal™
C:Lance Brenton Latham
Z:Public Domain
Z:Courtesy of the Cyber Hymnal™
%%score 1 ( 2 3 )
L:1/8
Q:1/4=110
M:4/4
K:Ab
V:1 treble 
V:2 bass 
V:3 bass 
V:1
 [CE]2 | [CE][DF][DG][CA] [DB][Ec][Fd][Ec] | [=DB]2 [DF]4 [D=E][DF] | [Dc]2 [DG]4 [D^F][DG] | %4
w: 1.~I’ve|found a ref- uge from life’s cares in|Je- sus, I am|hid- ing in His|
w: 2.~I’ve|found a pre- cious joy in know- ing|Je- sus, Ne- ver|dreamed of in this|
w: 3.~I’ve|found a bless- èd hope di- vine in|Je- sus, ’Tis a|Day Star ev- er|
 [CB][CA] [CE]4 [CE]2 | [CE][DF][DG][CA] [DB][Ec][Fd][Ec] | [Df]2 [FB]4 [Ac][Ad] | %7
w: love di- vine; He|full- y un- der- stands my soul’s deep|long- ing, And He|
w: world of woe; No|clouds, how- ev- er dark, can dim the|ra- diance Of the|
w: shin- ing bright; It|fills my earth- ly way with heav’n- ly|glo- ry, And it|
 [Ae][Ec][=DB][DF] [_DB]3 [DA] | [CA]6 ||"^Refrain" [EA][EA] | [DG]2 [Ed]4 [DF][D_F] | %11
w: whis- pers soft- ly, “Thou art|Mine.”|||
w: heav’n- ly light He doth be-|stow.|On- ly|Je- sus! On- ly|
w: turns life’s dark- ness in- to|light.|||
 [CE]2 [Ec]4 [EA][EA] | [DG]2 [Fd]2 [Ge]3 [Fd] | [Ec]6 [Ec][Ec] | [_Fd]2 [FA]3 [Fd][_Ge][Fd] | %15
w: ||||
w: Je- sus! On- ly|He can sa- tis-|fy; Ev- ery|bur- den be- comes a|
w: ||||
 [Ec]2 [CE]4 [EA][EA] | [DG]2 [Ge]2 [Ec]3 [DB] | [CA]6 |] %18
w: |||
w: bless- ing, When I|know my Lord is|nigh.|
w: |||
V:2
 [A,,A,]2 | [A,,A,][D,A,][B,,E,][A,,E,] [A,,A,]A,[F,=A,][F,A,] | [B,,A,]2 [B,,A,]4 [B,,A,][B,,A,] | %3
 [E,G,]2 [E,B,]4 [E,B,]E, | [A,,E,][A,,F,] [A,,A,]4 [A,,A,]2 | %5
 [A,,A,][D,A,][B,,E,][A,,E,] [A,,A,]A,[F,=A,][F,A,] | [B,,B,]2 [B,,D]4 [F,A,][_F,B,] | %7
 [E,C][E,A,][F,A,][F,A,] [E,G,]3 E, | [A,,E,]6 || [A,,C][C,C] | [E,B,]2 [E,G,]4 [E,G,][E,G,] | %11
 [A,,A,]2 [A,,A,]4 [A,,C][C,C] | [E,B,]2 [E,B,]2 [E,B,]3 [E,G,] | [A,,A,]6 [A,,A,][A,,A,] | %14
 [D,A,]2 [D,D]3 [D,A,][D,A,][D,A,] | [A,,A,]2 [A,,A,]4 [A,,C][C,C] | %16
 [E,B,]2 [E,B,]2 [E,G,]3 [E,G,] | [A,,A,]6 |] %18
V:3
 x2 | x5 =A, x2 | x8 | x7 E, | x8 | x5 =A, x2 | x8 | x7 E, | x6 || x2 | x8 | x8 | x8 | x8 | x8 | %15
 x8 | x8 | x6 |] %18

